packages/core/src/svg/ui/money-bag.svg

<svg width="24" height="24" viewBox="0 0 24 24" fill="none" xmlns="http://www.w3.org/2000/svg">
<path d="M12.464 14.716L12.116 15.856H10.712C10.916 16.66 11.336 17.2 12.212 17.2C13.184 17.2 13.52 16.336 13.532 15.352L15.116 16.348C14.744 17.56 13.784 18.592 12.212 18.592C10.64 18.592 9.452 17.68 9.032 15.856H8V14.716H8.888C8.876 14.584 8.876 14.44 8.876 14.284V14.02H8V12.88H9.02C9.44 10.984 10.712 10 12.212 10C13.724 10 14.744 10.96 15.116 12.184L13.532 13.168C13.532 12.184 13.16 11.392 12.212 11.392C11.384 11.392 10.928 12.016 10.712 12.88H12.98L12.644 14.02H10.568V14.716H12.464Z" fill="currentColor"/>
<path fill-rule="evenodd" clip-rule="evenodd" d="M11.9995 2C17.9772 2 17.9772 2.95238 17.9772 3.90476C17.9772 4.50064 16.807 5.84216 15.199 6.76301C18.7893 8.87132 21.6233 13.9983 21.9622 17.2381C22.4603 22 17.976 22 11.9993 22C6.0227 22 1.5396 22 2.03782 17.2381C2.37855 13.9814 5.23966 8.81779 8.85629 6.73027C7.21975 5.75613 6.02259 4.34759 6.02259 3.90438C6.02259 2.95212 6.02259 2 11.9995 2ZM15.5485 4.10203C15.3653 4.28013 15.1427 4.47216 14.8859 4.66307C13.9464 5.3615 12.8765 5.80952 11.9996 5.80952C11.1705 5.80952 10.1159 5.34161 9.14194 4.58999C8.92149 4.41987 8.72312 4.24874 8.55106 4.08648C8.62801 4.07501 8.71084 4.06368 8.7999 4.05265C9.52363 3.96296 10.5511 3.90476 11.9995 3.90476C13.4479 3.90476 14.4754 3.96296 15.1993 4.05265C15.3284 4.06865 15.4444 4.08527 15.5485 4.10203ZM19.773 18.9717C19.9052 18.7723 20.0757 18.3462 19.9797 17.4276C19.8068 15.7749 18.7445 13.2372 17.0852 11.099C15.3724 8.89178 13.5082 7.71429 11.9994 7.71429C10.4908 7.71429 8.62693 8.89168 6.91439 11.0989C5.25543 13.237 4.1933 15.7748 4.02037 17.4277C3.92424 18.3464 4.09478 18.7725 4.22692 18.972C4.35502 19.1653 4.61319 19.3974 5.24005 19.6041C5.89026 19.8184 6.78543 19.9539 7.97492 20.0245C9.15403 20.0945 10.4889 20.0952 11.9993 20.0952C13.5098 20.0952 14.8447 20.0945 16.024 20.0245C17.2136 19.9539 18.1089 19.8184 18.7594 19.604C19.3865 19.3973 19.6448 19.1652 19.773 18.9717Z" fill="currentColor"/>
</svg>

<svg xmlns="http://www.w3.org/2000/svg" viewBox="0 0 24 24"><g fill="none" fill-rule="evenodd"><path d="M0 0h24v24H0z"/><path d="M12.464 14.716l-.348 1.14h-1.404c.204.804.624 1.344 1.5 1.344.972 0 1.308-.864 1.32-1.848l1.584.996c-.372 1.212-1.332 2.244-2.904 2.244-1.572 0-2.76-.912-3.18-2.736H8v-1.14h.888c-.012-.132-.012-.276-.012-.432v-.264H8v-1.14h1.02c.42-1.896 1.692-2.88 3.192-2.88 1.512 0 2.532.96 2.904 2.184l-1.584.984c0-.984-.372-1.776-1.32-1.776-.828 0-1.284.624-1.5 1.488h2.268l-.336 1.14h-2.076v.696h1.896z" fill="currentColor"/><path clip-rule="evenodd" d="M12 2c5.977 0 5.977.952 5.977 1.905 0 .596-1.17 1.937-2.778 2.858 3.59 2.108 6.424 7.235 6.763 10.475C22.46 22 17.976 22 12 22c-5.976 0-10.46 0-9.961-4.762.34-3.257 3.202-8.42 6.818-10.508-1.636-.974-2.833-2.382-2.833-2.826 0-.952 0-1.904 5.976-1.904zm3.549 2.102c-.184.178-.406.37-.663.561-.94.699-2.01 1.147-2.886 1.147-.83 0-1.884-.468-2.858-1.22a7.9 7.9 0 01-.59-.504l.248-.033c.724-.09 1.751-.148 3.2-.148 1.448 0 2.475.058 3.2.148.128.016.244.032.349.049zm4.224 14.87c.132-.2.303-.626.207-1.544-.173-1.653-1.236-4.19-2.895-6.329C15.372 8.892 13.508 7.714 12 7.714c-1.508 0-3.372 1.178-5.085 3.385-1.659 2.138-2.72 4.676-2.894 6.329-.096.918.075 1.345.207 1.544.128.193.386.425 1.013.632.65.214 1.545.35 2.735.42 1.179.07 2.514.071 4.024.071 1.51 0 2.846 0 4.025-.07 1.19-.071 2.085-.207 2.735-.421.628-.207.886-.439 1.014-.632z" fill="currentColor"/></g></svg>
